X:4
T:Thou Bonnie Wood O' Craigielea
R:Air
C:James Barr
S:Steve Wyrick <sjwyrick@ca.astound.net> 2004-2-4
M:C
L:1/8
K:F
%Used as strathspey in The Academy (jig/strathspey medley)
%The original song is 24 bars long
AB|c3d c2 Ac|f3e d2 c2|c3d c2 A2|A2 G2 G2 AB|!
c2 A2 B2 c2|d2 e2 f2 d2|c3F c3A|GFGA F2 FG|!
A3B G3A|F2A2D2F2|C2F2A2F2|C2BA G3A|!
F3G A2F2|c2F2d2f2|c2F2c3A|GF GA F2||!
